X:445
T: Tom Dowd's Favorite
S: "Ceol Rince na hEireann" 1/115
Z: B.Black
L: 1/8
M: 4/4
R: reel
K: Ador
GA|BE E2 GEDE|GEDE G3A|BE E2 GE D2|BcdB A2 GA|
BE E2 GEDE|GEDE G3A|BE E2 GE D2|BcdB A2||
EF|G2 G2 GBdB|G2 GB AGED|G2 GF GABd|gedB AGEF|
G2 G2 GBdB|G2 GB AGED|G2 GF GABd|gecB A2||
